X:1
T:D Major Samuel Babcock, 1803
T:Nahum Tate & Nicholas Brady, 1698* New Version  (Psalm 149)        55. 55. 65. 65.
T:Truro
T:Transcribed from The Middlesex Harmony, 1803.
%%score [ 1 2 3 4 ]
L:1/8
Q:1/4=150
M:4/4
K:D
V:1 treble nm="Tr." snm="Tr."
V:2 treble nm="C." snm="C."
V:3 treble-8 nm="T." snm="T."
V:4 bass nm="B." snm="B."
V:1
 A4 | d4 d2 d2 | d6 d2 | A4 A2 B2 | A6 A2 | A4 A2 d2 | c6 f2 | (e2 d2) c2 B2 | A6 f2 | d4 d2 d2 | %10
w: 1.~O|praise ye the|Lord, pre-|pare your glad|voice; His|praise in the|great as-|sem- * bly to|sing; In|their great Cre-|
w: 2.~Let|them his great|name ex-|tol in the|dance; With|tim- brel and|harp his|prai- * ses ex-|press: Who|al- ways takes|
 d4 e2 fd | (c3 B) c2 d2 | e6 c2 | d4 f2 f2 | f4 e2 d2 | (c2 B2) A2 ^G2 | A6 A2 | d4 e2 f2 | %18
w: a- tor let *|all * men re-|joice; And|heirs of sal-|va- tion be|glad * in their|King, And|heirs of sal-|
w: plea- sure his *|saints * to ad-|vance, And|with his sal-|va- tion the|hum- * ble to|bless, And|with his sal-|
 (g2 e2) d2 B2 | A4 A2 A2 | A8 |] %21
w: va- * tion be|glad in their|King.|
w: va- * tion the|hum- ble to|bless.|
V:2
 D4 | F4 F2 F2 | F6 F2 | F4 D2 F2 | A6 A2 | A4 A2 A2 | A6 F2 | E4 E2 E2 | E6 F2 | G4 D2 D2 | %10
w: 3.~With|glo- ry a-|dorned, his|peo- ple shall|sing To|God, who their|beds with|safe- ty does|shield: Their|mounts filled with|
 D4 G2 F2 | A4 A2 A2 | A6 A2 | A4 A2 A2 | A4 G2 F2 | E4 E2 E2 | E6 F2 | D4 G2 F2 | E4 D2 D2 | %19
w: prai- ses of|him their great|King; While|a two- ed-|ged sword their|right hand shall|wield, While|a two- ed-|ged sword their|
 A4 F2 E2 | F8 |] %21
w: right hand shall|wield.|
V:3
 d4 | A4 A2 B2 | A6 A2 | d4 f2 d2 | e6 c>d | e4 e2 f2 | e6 d2 | (c2 B2) A2 ^G2 | A6 F2 | B4 B2 B2 | %10
w: 4.~Just|ven- geance to|take for|in- ju- ries|past; To *|pun- ish those|lands for|ru- * in de-|signed; With|chains, as their|
w: 5.~Thus|shall they make|good, when|them they de-|stroy, The *|dread- ful de-|cree which|God * does pro-|claim; Such|ho- nor and|
 B4 c2 d2 | (e3 f) e2 d2 | c6 e2 | f4 a2 f2 | d4 g2 f2 | (e2 d2) c2 B2 | A6 d2 | B4 c2 d2 | %18
w: cap- tives, to|tie * their kings|fast, With|fet- ters of|ir- on their|no- * bles to|bind, With|fet- ters of|
w: tri- umph his|saints * shall en-|joy; O|there- fore for-|ev- er ex-|alt * his great|name! O|there- fore for-|
 e4 d2 g2 | (f2 e2) d2 c2 | d8 |] %21
w: ir- on their|no- * bles to|bind.|
w: ev- er ex-|alt * his great|name!|
V:4
 D,4 | D,4 D,2 D,2 | D,6 D,2 | D,4 D,2 D,2 | A,6 A,2 | A,4 A,2 D2 | A,6 D,2 | E,4 E,2 E,2 | %8
 A,,6 D,2 | G,4 G,2 G,2 | G,2 F,2 E,2 D,2 | A,4 A,2 D2 | A,6 A,2 | D4 D2 D2 | D4 C2 D2 | %15
 E4 E,2 E,2 | A,6 F,2 | (G,2 F,2) E,2 D,2 | (G,2 A,2) B,2 G,2 | %19
 A,4 A,,2"^*. First stanza modified by Babcock\n          for this work.  Original wording:\nO praise ye the Lord, prepare your glad voice,\nHis praise in the great assembly to sing:\nIn our great creator let Israel rejoice;\nAnd children of Sion be glad in their King." A,,2 | %20
 D,8 |] %21

